src/img/icon-review.svg

<?xml version="1.0" encoding="UTF-8"?>
<svg width="71px" height="59px" viewBox="0 0 71 59" version="1.1" xmlns="http://www.w3.org/2000/svg" xmlns:xlink="http://www.w3.org/1999/xlink">
    <!-- Generator: Sketch 56.2 (81672) - https://sketch.com -->
    <title>Group 2</title>
    <desc>Created with Sketch.</desc>
    <g id="Page-1" stroke="none" stroke-width="1" fill="none" fill-rule="evenodd">
        <g id="311-Approved-" transform="translate(-349.000000, -1204.000000)" fill="#008943">
            <g id="Group-2" transform="translate(349.000000, 1204.000000)">
                <g id="Group-3" transform="translate(51.810811, 37.112903) scale(-1, 1) translate(-51.810811, -37.112903) translate(32.621622, 18.080645)">
                    <path d="M11.6004065,24.3372554 C10.866187,23.6080116 9.68445575,23.6080116 8.99166049,24.3372554 L0.550664593,32.7194279 C-0.183554864,33.4486717 -0.183554864,34.6223945 0.550664593,35.3104952 L2.79311629,37.5377501 C3.15942689,37.9015783 3.60855327,38.0645161 4.09748928,38.0645161 C4.58642529,38.0645161 5.07536131,37.8620384 5.40186227,37.5377501 L13.8412273,29.1555771 C14.5754468,28.4263334 14.5754468,27.2526106 13.8412273,26.5645103 L11.6004065,24.3372554 Z" id="Fill-1"></path>
                    <path d="M34.3082738,4.06185502 C28.8836117,-1.35395167 20.0473184,-1.35395167 14.6226563,4.06185502 C9.77255871,8.86690238 9.19799415,16.52216 13.2259465,21.9774625 L12.7731995,22.4260041 C12.3622091,22.833177 12.3622091,23.5250452 12.7731995,23.9322181 L14.2534225,25.398692 C14.6644129,25.8058649 15.3627677,25.8058649 15.7737581,25.398692 L16.2265051,24.9501504 C18.6506908,26.7410596 21.5693802,27.5967742 24.4463129,27.5967742 C28.0216004,27.5967742 31.6386446,26.2527779 34.3100821,23.566414 C39.7347442,18.1506073 39.7347442,9.43629296 34.3084793,4.06201789 L34.3082738,4.06185502 Z M32.2533218,21.5287579 C30.1566133,23.6059912 27.4032243,24.7447724 24.4445045,24.7447724 C21.4857025,24.7447724 18.7325601,23.6043625 16.6356872,21.5287579 C12.3202881,17.2534425 12.3202881,10.3315033 16.6356872,6.09771951 C20.9510862,1.82240409 27.9798438,1.82240409 32.2533218,6.05636703 C36.5687209,10.3316824 36.5687209,17.2536217 32.2533218,21.5289371 L32.2533218,21.5287579 Z" id="Fill-2"></path>
                </g>
                <g id="Group-6">
                    <path d="M46.7632621,20.9666902 L43.8901332,20.9666902 L43.8909714,19.1409555 L43.8823621,16.1765657 L43.8823621,9.08428992 L43.8823621,7.52469451 L43.8823621,7.39662496 L43.8823621,7.37385687 C43.8823621,7.30839409 43.876625,7.23155818 43.876625,7.16040519 C43.8680156,6.86726887 43.8909714,7.21732904 43.8909714,7.22301924 C43.9139273,7.15755645 43.8421876,6.98679948 43.8278411,6.92418543 C43.822104,6.89572715 43.8048853,6.86157138 43.7991482,6.8331131 C43.7503643,6.68226818 43.7618385,6.71073375 43.8421876,6.90425881 C43.8479247,6.89856132 43.7704479,6.76480157 43.7561014,6.74203349 C43.7274085,6.69365587 43.6987156,6.64527825 43.6642782,6.5940446 C43.6987082,6.64242222 43.7446272,6.69080712 43.7790572,6.74203349 C43.7733201,6.74203349 43.658541,6.61681268 43.6642782,6.62250288 C43.4777667,6.41189994 43.8794899,6.76480886 43.7216714,6.67373653 C43.5667251,6.5883544 44.074618,6.74488223 43.8020204,6.70219481 C43.5064597,6.65096845 44.1607041,6.68796567 43.8450598,6.70219481 C43.7302807,6.70788501 43.6155016,6.70219481 43.5007226,6.70219481 L35.127535,6.70248624 C34.324074,6.70248624 33.7272228,6.04785834 33.7071392,5.29654806 C33.6726871,4.52814532 34.390084,3.87356114 35.1418594,3.87356114 L38.6139543,3.87356114 L43.4977769,3.87356114 C43.6125559,3.87356114 43.7359444,3.86787094 43.8564606,3.87356114 C44.8034156,3.90773148 45.5494686,4.35741021 46.0946711,5.10303758 C46.5910897,5.77755567 46.7632621,6.65979153 46.7632621,7.47091812 C46.7689992,8.87110053 46.7632621,10.2827216 46.7632621,11.6829769 L46.7632621,19.1409555 L46.7632621,20.9666902 Z M46.7632621,43.6799261 L46.7632621,51.4648272 L46.7632621,53.8782439 C46.7632621,54.2823865 46.7776085,54.7035851 46.7345618,55.1077203 C46.556645,56.6815959 45.5580486,58.053371 43.8507235,58.0960584 L43.4719562,58.0960584 L41.285387,58.0960584 L32.5967021,58.0960584 L21.153319,58.0960584 L10.5135733,58.0960584 L4.15771353,58.0960584 L3.64694843,58.0960584 C2.513482,58.0760954 1.51777986,57.4927225 0.900845032,56.5535118 C0.392952168,55.7794698 0.34990542,54.9398558 0.34990542,54.0718272 L0.34990542,48.2716856 L0.34990542,38.3673878 L0.34990542,26.898103 L0.34990542,16.3191413 L0.34990542,9.11306149 L0.34990542,7.54210025 C0.34990542,5.64947155 1.70999167,3.87640988 3.71291427,3.87071968 C6.46746541,3.85649054 9.21643369,3.87071968 11.9711318,3.87071968 C12.7745633,3.87071968 13.3713999,4.52530387 13.405852,5.2937066 C13.440304,6.06210934 12.7229072,6.71669352 11.9711318,6.71669352 L8.49330709,6.71669352 L3.83617782,6.71669352 L3.63531259,6.71669352 L3.60088253,6.71669352 C3.34263143,6.70815458 3.70131515,6.72238372 3.71566162,6.69392544 C3.6582684,6.71100332 3.60087519,6.72238372 3.54348932,6.7451518 C3.73861009,6.65977696 3.78165684,6.63700888 3.68122422,6.68823524 C3.6582684,6.70815458 3.47462187,6.77930757 3.48035898,6.80776585 C3.4860961,6.84476307 3.70130781,6.60284583 3.54348932,6.76507114 C3.50044992,6.80775857 3.35123343,6.91591606 3.33688696,6.97852283 C3.33688696,6.97852283 3.51766127,6.6853865 3.37992637,6.9358354 C3.34549631,7.00983713 3.30244957,7.08667304 3.25941016,7.15782603 C3.15610531,7.32859028 3.34549631,6.83907288 3.26514728,7.15782603 C3.26514728,7.15782603 3.19915206,7.34850962 3.21349853,7.36273877 C3.22497276,7.15782603 3.23358211,7.1378994 3.21923565,7.30012472 L3.21923565,7.40827493 L3.21923565,7.41396513 L3.21923565,7.44812089 L3.21923565,7.59610979 L3.21923565,12.2778103 L3.21923565,21.3792146 L3.21923565,32.5723681 L3.21923565,43.4442184 L3.21923565,51.6123134 L3.21923565,53.9232919 L3.21923565,54.5209523 L3.21923565,54.6575607 L3.21923565,54.686019 L3.21923565,54.7941692 C3.227845,55.101542 3.21923565,54.725865 3.21349853,54.7315625 C3.19915206,54.7429502 3.27662886,55.0076209 3.29958468,55.0218573 C3.27950109,54.9734797 3.25941016,54.9165559 3.23645435,54.8653295 C3.26514728,54.9222461 3.29384756,54.9791626 3.32827761,55.0360865 C3.44880116,55.2922256 3.27089174,54.9706237 3.27089174,54.9848528 C3.27089174,55.0332377 3.43157512,55.1556171 3.46601252,55.1897656 C3.61809389,55.3519909 3.41722865,55.0958518 3.39427283,55.1385392 C3.38853572,55.1527684 3.5807916,55.2381505 3.59513807,55.2523796 C3.70705227,55.3605298 3.27949375,55.172695 3.54348932,55.2239213 C3.54348932,55.2239213 3.7099245,55.2523796 3.71566162,55.2666088 C3.64679417,55.1869241 3.36558724,55.2523796 3.59514542,55.2381505 L3.6668851,55.2381505 L4.19774113,55.2381505 L6.62246308,55.2381505 L15.417663,55.2381505 L26.7288132,55.2381505 L37.1592093,55.2381505 L43.3285576,55.2381505 C43.4892483,55.2381505 43.6528113,55.2324603 43.8106298,55.2381505 L43.8536692,55.2381505 C44.1492299,55.2495309 43.5581158,55.3149937 43.8106298,55.2438407 C44.0602715,55.1641488 43.5236784,55.4288341 43.7962759,55.2438407 C43.9397553,55.1385392 43.5466342,55.5085187 43.7245436,55.295067 C43.7302807,55.2893768 43.8163669,55.1812339 43.8393227,55.1755364 C43.7015804,55.3548396 43.6728875,55.3832979 43.7589737,55.2552284 C43.7733201,55.2267701 43.7876666,55.204002 43.8020131,55.1755364 C43.9167921,54.9877016 43.7044527,55.2438407 43.767583,55.2666088 C43.7761924,55.2666088 43.8335782,55.061696 43.8393153,55.0389279 C43.8479247,54.9962405 43.9139273,54.8311737 43.8909714,54.797018 C43.911055,54.8254835 43.876625,55.0901616 43.876625,54.868171 C43.876625,54.5152839 43.8823621,54.1595335 43.8823621,53.8094734 L43.8823621,47.7531635 L43.8823621,43.0148891 L46.7632621,43.6799261 Z" id="Combined-Shape"></path>
                    <path d="M37.4954808,19.1536036 L34.7178636,19.1536036 L28.0549469,19.1536036 L19.9913947,19.1536036 L13.0185561,19.1536036 C11.8937578,19.1536036 10.7574265,19.1251453 9.63255471,19.1536036 L9.58090596,19.1536036 C8.82913049,19.1536036 8.11173366,19.8081878 8.14618575,20.5765905 C8.1806158,21.3450224 8.77747439,21.9995774 9.58090596,21.9995774 L12.3585231,21.9995774 L19.0214398,21.9995774 L27.084992,21.9995774 L34.0578306,21.9995774 C35.182629,21.9995774 36.3189603,22.0280357 37.443832,21.9995774 L37.4954808,21.9995774 C38.2472563,21.9995774 38.9646531,21.3449932 38.930201,20.5765905 C38.8928987,19.8024757 38.2989123,19.1536036 37.4954808,19.1536036 Z" id="Fill-2"></path>
                    <path d="M33.7568497,31.1066646 L31.3330422,31.1066646 L25.5188401,31.1066646 L18.4824138,31.1066646 L12.3977673,31.1066646 C11.4162445,31.1066646 10.4246577,31.0782063 9.44307082,31.1066646 L9.39800103,31.1066646 C8.74198585,31.1066646 8.11597019,31.7612488 8.14603381,32.5296515 C8.1760782,33.2980834 8.69690964,33.9526384 9.39800103,33.9526384 L11.8218085,33.9526384 L17.6360107,33.9526384 L24.6724369,33.9526384 L30.7570835,33.9526384 C31.7386063,33.9526384 32.730193,33.9810967 33.7117799,33.9526384 L33.7568497,33.9526384 C34.4128649,33.9526384 35.0388806,33.2980542 35.0088169,32.5296515 C34.9762662,31.7555367 34.4579411,31.1066646 33.7568497,31.1066646 Z" id="Fill-3"></path>
                    <path d="M23.7939799,43.0604541 L18.9875828,43.0604541 L11.3603748,43.0604541 L9.59567848,43.0604541 C8.84390302,43.0604541 8.12650619,43.7150383 8.16095828,44.4834411 C8.19538833,45.2518729 8.79224692,45.906428 9.59567848,45.906428 L14.4020757,45.906428 L22.0292836,45.906428 L23.7939799,45.906428 C24.5457554,45.906428 25.2631522,45.2518438 25.2287001,44.4834411 C25.1942627,43.7093263 24.5974115,43.0604541 23.7939799,43.0604541 Z" id="Fill-4"></path>
                    <path d="M29.741924,0.213473538 L22.4017923,0.213473538 L15.7302809,0.213473538 L14.0660025,0.213473538 C12.502142,0.213473538 11.0386995,1.14692848 10.6369543,2.70375529 C10.5078288,3.20180436 10.5221753,3.70555091 10.5221753,4.21781454 L10.5221753,6.02505383 C10.5221753,6.42349891 10.5164381,6.82765605 10.5221753,7.22604284 C10.5451311,8.39293438 11.1305007,9.46015635 12.1290825,10.0862968 C12.8464499,10.5359683 13.6441664,10.5843459 14.4533865,10.5843459 L16.6284226,10.5843459 L23.7389962,10.5843459 L30.7404837,10.5843459 L32.7777849,10.5843459 C33.8107599,10.5843459 34.7807075,10.3794332 35.5612053,9.63945227 C36.2498798,8.98486808 36.5798559,8.07985685 36.5884505,7.14917051 L36.5884505,5.69201325 C36.5884505,4.48242701 36.76636,3.08792752 36.1809829,1.97793798 C35.5870039,0.882228576 34.4220311,0.250485333 33.2053361,0.213473538 C32.4535606,0.190705456 34.6372942,1.17850174e-13 34.6372942,1.62498535 C34.6372942,3.24997069 32.3961527,3.03663558 33.1995916,3.05936724 C33.2512404,3.05936724 33.3000242,3.06505743 33.3488081,3.06505743 C33.5066266,3.06505743 33.2196825,3.05936724 33.2053361,3.04228935 C33.2110732,3.04797955 33.621413,3.22728275 33.4004568,3.08498406 C33.2139381,2.97114365 33.4635872,3.14190062 33.520973,3.16467599 C33.6787915,3.22159255 33.3918475,3.10206194 33.4205404,3.07929386 C33.4262775,3.07359638 33.549666,3.19313427 33.5582753,3.19882447 C33.5869683,3.22728275 33.6156685,3.26997017 33.6500986,3.29843574 C33.7706148,3.40658595 33.549666,3.20736341 33.5697496,3.19028553 C33.5640124,3.19597573 33.8136542,3.56595524 33.6787915,3.34681336 C33.5697496,3.1760491 33.6845287,3.43219549 33.7074845,3.48911205 C33.7706148,3.60864266 33.6845287,3.38096184 33.693138,3.34681336 C33.6787915,3.39803973 33.6988751,3.48911205 33.6988751,3.5460359 C33.7046196,3.86478905 33.6988751,4.177852 33.6988751,4.4994539 C33.6988751,5.42438447 33.7275754,6.34938789 33.6988751,7.27431846 C33.6988751,7.31700588 33.6759193,7.38246867 33.693138,7.42230735 C33.6874009,7.38815159 33.7648777,7.16047077 33.7074845,7.28000866 C33.6787915,7.33692522 33.5640124,7.59307161 33.6787915,7.42230735 C33.7935706,7.23731395 33.6214057,7.48491412 33.5984425,7.54183796 C33.5410566,7.6983658 33.6615728,7.40522947 33.6845287,7.44222669 C33.6902658,7.45645583 33.5353195,7.59875453 33.5267102,7.61299095 C33.520973,7.61868115 33.4262775,7.70406328 33.4176682,7.70406328 C33.3889753,7.6812952 33.6759193,7.56176459 33.5181008,7.61868115 C33.4664521,7.64144923 33.216803,7.81220621 33.3975846,7.69837308 C33.5697569,7.59022287 33.3114985,7.70406328 33.2541126,7.72683136 C33.1335964,7.78944541 33.3631546,7.70406328 33.3975846,7.71260222 C33.3545452,7.69837308 33.2541126,7.71829242 33.1967194,7.71829242 L32.9614241,7.71829242 L31.2971457,7.71829242 L24.903969,7.71829242 L17.8106582,7.71829242 C16.5279974,7.71829242 15.2338769,7.72398262 13.9512161,7.71829242 L13.8421741,7.71829242 C13.7991347,7.71829242 13.7331321,7.69552434 13.692965,7.71260222 C13.727395,7.70690474 13.9569605,7.78374793 13.836437,7.72683136 C13.7790438,7.69837308 13.5207927,7.58453267 13.692965,7.69837308 C13.8794837,7.81221349 13.6298346,7.64144923 13.5724487,7.61868115 C13.4146303,7.5617573 13.7101837,7.68128791 13.6728814,7.70406328 C13.6585349,7.70975348 13.5236722,7.56176459 13.5007091,7.54753545 C13.4949719,7.54183796 13.4088858,7.44792418 13.4088858,7.43938524 C13.4318416,7.41091967 13.5523578,7.69552434 13.4949719,7.53899651 C13.4720161,7.48776286 13.2998512,7.2401627 13.4146229,7.4194659 C13.5236649,7.59023016 13.4088858,7.33408377 13.38593,7.27716721 C13.3227996,7.1576366 13.4088858,7.38531742 13.4002764,7.4194659 C13.4146229,7.37677119 13.3945393,7.27716721 13.3945393,7.22024336 L13.3945393,6.92994849 L13.3945393,3.79931898 L13.3945393,3.49194622 C13.3945393,3.44925152 13.4174951,3.38379601 13.4002764,3.34395733 C13.4146229,3.3951837 13.3199274,3.5858673 13.38593,3.48625603 C13.4088858,3.45779046 13.4146229,3.37810581 13.42036,3.34964753 C13.4834904,3.07927929 13.4060136,3.44071986 13.3773206,3.42933946 C13.3715835,3.42933946 13.5064462,3.1874295 13.5207927,3.1874295 C13.5437485,3.1931197 13.3199274,3.39234224 13.4404436,3.29557971 C13.483483,3.26142395 13.5265298,3.20450738 13.5695692,3.15897122 C13.5753063,3.15327373 13.6700018,3.06789889 13.6786111,3.06789889 C13.7216505,3.09635717 13.4146156,3.19596844 13.5781785,3.15328102 C13.6126086,3.14758354 13.6700018,3.10204737 13.6986947,3.08212803 C13.93399,2.9256002 13.6183457,3.13905188 13.6126086,3.11058631 C13.6126086,3.08212803 13.8708597,3.05366975 13.8852061,3.03089438 C13.879469,3.03659187 13.5839083,3.04512352 13.7417341,3.05366246 C13.7933829,3.05366246 13.8421667,3.04797227 13.8909433,3.04797227 L13.9540736,3.04797227 L15.2683217,3.04797227 L21.2712862,3.04797227 L28.4880075,3.04797227 L32.978753,3.04797227 L33.202574,3.04797227 C33.9543495,3.04797227 34.6372942,2.41766734 34.6372942,1.62498535 C34.6372942,0.832303354 34.0031407,0.213364252 33.1997091,0.213364252 L29.741924,0.213473538 Z" id="Fill-5"></path>
                </g>
            </g>
        </g>
    </g>
</svg>

<svg xmlns="http://www.w3.org/2000/svg" width="71" height="59" version="1.1" viewBox="0 0 71 59" fill="#008943">
  <g fill-rule="evenodd" stroke="none" stroke-width="1">
    <path d="M59.4 42.417c.734-.729 1.916-.729 2.608 0L70.45 50.8c.735.73.735 1.903 0 2.591l-2.242 2.228a1.792 1.792 0 0 1-1.304.527c-.49 0-.978-.203-1.305-.527l-8.44-8.382c-.736-.73-.736-1.903-.003-2.591l2.24-2.229zM36.692 22.142c5.424-5.416 14.26-5.416 19.685 0 4.85 4.805 5.425 12.46 1.397 17.915l.453.45c.41.406.41 1.098 0 1.505l-1.48 1.467a1.099 1.099 0 0 1-1.52 0l-.454-.449c-2.424 1.791-5.342 2.647-8.22 2.647-3.575 0-7.192-1.344-9.863-4.03-5.425-5.416-5.425-14.13.002-19.505zm2.055 17.467a10.992 10.992 0 0 0 7.808 3.216 11 11 0 0 0 7.81-3.216c4.315-4.276 4.315-11.197 0-15.431-4.316-4.276-11.345-4.276-15.618-.042a10.864 10.864 0 0 0 0 15.473z"/>
    <path d="M46.763 20.967H43.89V19.14l-.008-2.964V7.374c0-.066-.005-.142-.005-.214-.01-.293.014.057.014.063.023-.065-.049-.236-.063-.3-.006-.027-.023-.061-.03-.09-.048-.151-.036-.122.044.07a2.994 2.994 0 0 0-.178-.31c.035.049.08.098.115.149a2.05 2.05 0 0 1-.115-.12c-.186-.21.215.143.058.052-.155-.086.353.07.08.028-.296-.051.359-.014.043 0-.115.006-.23 0-.344 0h-8.373c-.804 0-1.4-.654-1.42-1.405-.035-.77.682-1.423 1.434-1.423h8.356c.115 0 .238-.006.358 0 .947.034 1.693.483 2.239 1.23.496.674.668 1.556.668 2.367.006 1.4 0 2.812 0 4.212v9.284zm0 22.713v10.198c0 .404.015.826-.028 1.23-.178 1.574-1.177 2.945-2.884 2.988H3.647c-1.134-.02-2.13-.603-2.746-1.542-.504-.775-.55-1.614-.55-2.482V7.543c0-1.894 1.36-3.667 3.366-3.672 2.754-.015 5.503 0 8.258 0 .804 0 1.4.654 1.435 1.423.034.768-.683 1.423-1.435 1.423h-8.37c-.258-.01.1.005.115-.023-.06.017-.116.028-.174.05.196-.084.239-.107.138-.056-.023.02-.206.09-.2.12.005.037.22-.205.062-.043-.043.043-.192.15-.206.214 0 0 .18-.294.043-.043-.035.074-.078.15-.12.222-.103.17.086-.32.006 0 0 0-.066.19-.052.205.012-.205.02-.225.006-.063v47.494c.009.308 0-.068-.006-.062-.014.01.064.276.087.29-.02-.049-.04-.105-.064-.157.03.057.058.114.092.171.12.256-.057-.065-.057-.051 0 .048.16.17.195.205.152.162-.05-.094-.072-.051-.005.014.187.1.2.113.113.109-.315-.08-.051-.028 0 0 .167.028.173.043-.07-.08-.35-.015-.12-.03h39.73c.16 0 .324-.005.482 0h.043c.295.013-.296.078-.043.007.25-.08-.287.185-.015 0 .144-.105-.25.265-.071.05.005-.005.091-.113.114-.12-.137.18-.166.209-.08.08.014-.027.029-.05.043-.08.115-.186-.098.07-.034.093.008 0 .066-.205.071-.228.009-.043.075-.208.052-.242.02.028-.014.293-.014.071 0-.353.005-.708.005-1.06V43.015l2.88.665z"/>
    <path d="M37.495 19.154H13.02c-1.125 0-2.262-.029-3.386 0H9.58c-.752 0-1.47.654-1.435 1.423C8.18 21.345 8.776 22 9.58 22h24.478c1.125 0 2.26.028 3.386 0h.051c.752 0 1.47-.655 1.435-1.423-.037-.775-.63-1.423-1.435-1.423zm-3.738 11.953H12.398c-.982 0-1.973-.029-2.955 0h-.045c-.656 0-1.282.654-1.252 1.423.03.768.55 1.423 1.252 1.423h21.359c.982 0 1.973.028 2.955 0h.045c.656 0 1.282-.655 1.252-1.423-.033-.774-.55-1.423-1.252-1.423zM23.794 43.06H9.596c-.752 0-1.47.655-1.435 1.423.034.77.631 1.423 1.435 1.423h14.198c.752 0 1.47-.654 1.435-1.423-.035-.774-.632-1.423-1.435-1.423zM29.742.213H14.066c-1.564 0-3.027.934-3.43 2.49-.128.5-.114 1.003-.114 1.515v1.807c0 .398-.006.803 0 1.201a3.426 3.426 0 0 0 1.607 2.86c.717.45 1.515.498 2.324.498h18.325c1.033 0 2.003-.205 2.783-.945.689-.654 1.019-1.56 1.027-2.49V5.692c0-1.21.178-2.604-.407-3.714C35.587.882 34.421.25 33.205.213c-.75-.022 1.432-.213 1.432 1.412s-2.24 1.412-1.437 1.434c.051 0 .1.006.149.006.154 0-.13-.006-.148-.023.006.006.416.185.195.043-.186-.114.064.057.12.08.159.057-.128-.063-.1-.086.006-.005.13.114.138.12.029.024.058.07.092.095.12.11-.1-.09-.08-.108-.006.006.244.376.109.157-.11-.17.006.085.028.142.064.12-.022-.108-.014-.142-.013.051.007.142.007.2.006.318 0 .63 0 .952 0 .924.029 1.85 0 2.774 0 .043-.023.108-.006.148-.006-.034.072-.262.014-.142-.028.057-.143.313-.028.142.115-.186-.058.062-.08.119-.059.156.062-.137.085-.1.005.014-.15.157-.158.17a.865.865 0 0 1-.11.092c-.028-.023.259-.142.101-.085-.052.022-.301.193-.12.08.172-.109-.087.005-.144.028-.12.062.11-.023.144-.014-.043-.014-.144.006-.201.006H17.81c-1.283 0-2.577.006-3.86 0h-.109c-.043 0-.109-.022-.15-.005.038-.007.268.069.147.013-.057-.029-.315-.142-.143-.029.186.114-.063-.057-.12-.08-.158-.056.137.063.1.086-.014.006-.15-.142-.172-.156a1.081 1.081 0 0 1-.092-.109c.023-.028.143.257.086.1-.023-.051-.195-.299-.08-.12.109.171-.006-.085-.03-.142-.062-.12.024.108.015.142.014-.043-.006-.143-.006-.2V3.492c0-.043.022-.108.005-.148.013.051-.082.242-.016.142.023-.028.029-.108.034-.136.063-.27-.014.09-.043.08-.005 0 .13-.243.144-.243.023.006-.2.205-.08.109.042-.035.086-.091.13-.137a.939.939 0 0 1 .108-.091c.043.028-.264.128-.1.085.034-.005.091-.05.12-.07.235-.157-.08.056-.086.028.002-.03.261-.057.274-.08-.006.006-.3.014-.143.023.051 0 .1-.006.15-.006h19.311c.751 0 1.434-.63 1.434-1.423S34.003.213 33.2.213h-3.458z"/>
  </g>
</svg>
